learning-site/svg (111).svg

<svg xmlns="http://www.w3.org/2000/svg" xmlns:xlink="http://www.w3.org/1999/xlink" viewBox="0 0 100 100" version="1.1"><!-- Generator: Sketch 51.3 (57544) - http://www.bohemiancoding.com/sketch --><title>top-5-security-items-to-consider-before-pushing-to-production</title><desc>Created with Sketch.</desc><defs><filter x="-1.5%" y="-1.6%" width="103.1%" height="106.2%" filterUnits="objectBoundingBox" id="filter-1"><feOffset dx="0" dy="2" in="SourceAlpha" result="shadowOffsetOuter1"></feOffset><feColorMatrix values="0 0 0 0 0   0 0 0 0 0   0 0 0 0 0  0 0 0 0.0955615942 0" type="matrix" in="shadowOffsetOuter1" result="shadowMatrixOuter1"></feColorMatrix><feMerge><feMergeNode in="shadowMatrixOuter1"></feMergeNode><feMergeNode in="SourceGraphic"></feMergeNode></feMerge></filter></defs><g id="Badges-FINAL" stroke="none" stroke-width="1" fill="none" fill-rule="evenodd"><g id="N/A-2" transform="translate(-577.000000, -1432.000000)"><g id="top-5-security-items-to-consider-before-pushing-to-production" transform="translate(577.000000, 1432.000000)"><rect id="BG" fill="#55A2FF" x="2" y="2" width="96" height="96" rx="48"></rect><g id="Icon" filter="url(#filter-1)" transform="translate(18.500000, 16.000000)"><path d="M32.051196,26.7023837 L32.051196,5.85040498" id="Stroke-3729" stroke="#30404C" stroke-width="2"></path><polyline id="Stroke-3730" stroke="#30404C" stroke-width="2" points="14.2694096 15.7011171 14.2694096 31.0520787 21.4559623 40.7738427"></polyline><polyline id="Stroke-3731" stroke="#30404C" stroke-width="2" points="3.03503862 26.5742799 3.03503862 41.9252415 10.2208238 51.6477731 18.9938983 51.6477731"></polyline><polyline id="Stroke-3732" stroke="#30404C" stroke-width="2" points="61.6467754 26.5742799 61.6467754 41.9252415 54.4609903 51.6477731 44.9948198 51.6477731"></polyline><polyline id="Stroke-3733" stroke="#30404C" stroke-width="2" points="50.9843045 15.7011171 50.9843045 31.0520787 41.6678059 41.6695713"></polyline><path d="M32.34202,41.3315431 L32.34202,60.1664055 C32.34202,61.4244168 31.3219486,62.4444882 30.0639373,62.4444882 L20.7436009,62.4444882 C19.4855896,62.4444882 18.4662858,61.4244168 18.4662858,60.1664055 L18.5031281,61.6301196 C18.5031281,62.9487673 19.3896461,63.9281586 20.648425,63.9281586 L42.9295782,63.9281586 C44.1875895,63.9281586 45.2076609,62.9088547 45.2076609,61.6508434 L45.2076609,42.3516145 L32.34202,41.3315431 Z" id="Fill-3734" fill="#192A36"></path><path d="M32.34202,42.5683701 L32.34202,41.3318501 L18.4662858,41.8376643 L18.4662858,60.1667125 C18.4662858,61.4239562 19.4855896,62.4447952 20.7436009,62.4447952 L30.0639373,62.4447952 C31.3219486,62.4447952 32.34202,61.4239562 32.34202,60.1667125 L32.34202,48.7678559 C32.34202,47.7124773 33.1970685,46.8574288 34.2524471,46.8574288 L42.7185025,46.8574288 C44.1384664,46.8574288 45.2022881,45.8373574 45.2022881,44.579346 L45.2022881,42.5683701 L32.34202,42.5683701 Z" id="Fill-3736" fill="#30404C"></path><path d="M41.5758537,46.2801558 L21.953487,46.2801558 C19.9471163,46.2801558 18.322217,44.654489 18.322217,42.6488859 L18.322217,42.4063407 C18.322217,40.4007375 19.9471163,38.7750707 21.953487,38.7750707 L41.5758537,38.7750707 C43.5814568,38.7750707 45.2071236,40.4007375 45.2071236,42.4063407 L45.2071236,42.6488859 C45.2071236,44.654489 43.5814568,46.2801558 41.5758537,46.2801558" id="Fill-3738" fill="#546670"></path><path d="M39.8218528,34.6514954 L39.8464143,34.6514954 L39.8464143,41.2078911 C40.2831492,41.2531764 40.6745987,41.3690762 41.0015742,41.5348666 L41.0015742,34.4043449 L40.9762451,34.4043449 C40.7168138,29.2610052 36.4776458,25.1676713 31.2698321,25.1676713 C30.3526121,25.1676713 29.4683967,25.3027598 28.627164,25.5399321 C29.1137895,25.46548 29.6073229,25.4148218 30.1154397,25.4148218 C35.3232535,25.4148218 39.5624215,29.5081557 39.8218528,34.6514954" id="Fill-3740" fill="#C5CCCD"></path><path d="M24.0121277,35.6791655 C24.0121277,35.6929814 24.0128952,35.7390343 24.0128952,35.798903 C24.0136628,35.9240134 24.0144303,36.1427646 24.0159654,36.4305951 C24.0159654,36.5104201 24.016733,36.5948504 24.0175005,36.6854211 C24.0228733,37.8022035 24.0328515,39.6397136 24.040527,41.1494807 L24.0412945,41.1494807 C24.0435971,41.665273 24.0458998,42.4942249 24.0482024,43.2287684 L24.0520402,43.2287684 L25.2048974,43.2287684 C25.2033623,42.662318 25.2018272,42.0659331 25.2002921,41.7443305 C25.1872438,39.4601074 25.1672875,35.5993405 25.1672875,35.432015 C25.1672875,32.6105083 27.0170784,30.2234338 29.5691758,29.4113679 C26.4391147,29.7874665 24.0121277,32.4477881 24.0121277,35.6791655" id="Fill-3742" fill="#C5CCCD"></path><path d="M39.8218528,34.6514954 C39.5624215,29.5081557 35.3232535,25.4148218 30.1154397,25.4148218 C29.6073229,25.4148218 29.1137895,25.46548 28.627164,25.5399321 C24.5384354,26.6927893 21.5388575,30.4414942 21.5388575,34.8986459 C21.5388575,35.092068 21.5557435,38.4585339 21.5733972,41.6162267 C21.5733972,41.6576743 21.5741647,41.7037272 21.5741647,41.7520827 C21.5764673,42.2548267 21.57877,42.7529654 21.5818402,43.2288452 L24.0479722,43.2288452 C24.0456695,42.4966043 24.0433669,41.6914464 24.0410642,41.2608519 C24.0410642,41.2240096 24.0410642,41.1863998 24.0402967,41.1495574 C24.0326212,39.6397904 24.0226431,37.8022803 24.0172702,36.6847303 C24.0165027,36.5949271 24.0157351,36.5104968 24.0157351,36.4299043 C24.0142001,36.1420738 24.0134325,35.9248577 24.012665,35.7989798 C24.012665,35.739111 24.0118974,35.6922906 24.0118974,35.6792423 C24.0118974,32.4478649 26.4388844,29.7875432 29.5697131,29.4114446 C30.1737734,29.2187901 30.8169787,29.113636 31.4855131,29.113636 C34.8657948,29.113636 37.6182222,31.771655 37.7870828,35.1104891 L37.8032013,35.1104891 L37.8032013,41.5717089 C38.2391686,41.3322339 38.8086893,41.182562 39.4380787,41.182562 C39.57854,41.182562 39.712861,41.1940752 39.8464143,41.2078911 L39.8464143,34.6514954 L39.8218528,34.6514954 Z" id="Fill-3744" fill="#F5F8F5"></path><path d="M24.0174238,36.6850373 C24.0166562,36.5952342 24.0158887,36.5100363 24.0158887,36.4302113 C24.0158887,36.5100363 24.0166562,36.5952342 24.0174238,36.6850373" id="Fill-3746" fill="#F5F8F5"></path><path d="M24.0128952,35.7990565 C24.0128952,35.7391878 24.0121277,35.6923673 24.0121277,35.679319 C24.0121277,35.6923673 24.0128952,35.7391878 24.0128952,35.7990565" id="Fill-3748" fill="#F5F8F5"></path><path d="M24.0413713,41.1494039 L24.0413713,41.261466 C24.0436739,41.6912929 24.0459765,42.4964508 24.0482792,43.2286917 C24.0459765,42.4941482 24.0436739,41.6651963 24.0413713,41.1494039" id="Fill-3750" fill="#F5F8F5"></path><path d="M21.5730901,41.6163802 C21.1110262,41.893465 20.8224281,42.2795417 20.8224281,42.7086011 C20.8224281,43.138428 21.1140964,43.5252723 21.5792305,43.8031247 C21.5769279,43.0946778 21.5753928,42.2380941 21.5738577,41.7522362 C21.5738577,41.7069509 21.5730901,41.6624331 21.5730901,41.6163802" id="Fill-3752" fill="#273743"></path><path d="M25.2047439,43.2286917 C25.2055114,43.3791311 25.2055114,43.5280354 25.2055114,43.6684967 C25.5539783,43.4052277 25.7711944,43.0744145 25.7711944,42.7082941 C25.7711944,42.3406386 25.5516756,42.0075227 25.2001386,41.7442537 C25.2039763,42.4250689 25.2070465,42.9669578 25.2085816,43.2286917 L25.2047439,43.2286917 Z" id="Fill-3754" fill="#273743"></path><path d="M24.0518867,43.2286917 L24.0480489,43.2286917 C24.0488165,43.5725532 24.049584,43.8941559 24.0503516,44.1543547 C24.5101129,44.0630165 24.9069352,43.8933883 25.2055114,43.6684967 C25.2055114,43.5280354 25.2055114,43.3791311 25.2047439,43.2286917 L24.0518867,43.2286917 Z" id="Fill-3756" fill="#C5CCCD"></path><path d="M24.0503516,44.1544314 C24.049584,43.8903949 24.0488165,43.5680247 24.0480489,43.2287684 L21.5819169,43.2287684 C21.5788467,42.7528886 21.5757766,42.2547499 21.5734739,41.7520059 C21.575009,42.2378639 21.5765441,43.0944475 21.5788467,43.8028944 C22.0240246,44.0692336 22.628085,44.2342564 23.2973869,44.2342564 C23.5614234,44.2342564 23.8108766,44.2020194 24.0503516,44.1544314" id="Fill-3758" fill="#F5F8F5"></path><path d="M37.8032781,41.5714019 C37.2920911,41.8507894 36.9635805,42.2545197 36.9635805,42.7081406 C36.9635805,43.162529 37.2920911,43.5662593 37.8032781,43.8456468 L37.8032781,43.2285382 L37.8032781,41.5714019 Z" id="Fill-3760" fill="#273743"></path><path d="M41.9123467,42.7085244 C41.9123467,42.2334121 41.5531342,41.8150984 41.0012672,41.5349433 L41.0012672,43.228922 L41.0012672,43.8821054 C41.5531342,43.6019503 41.9123467,43.1828691 41.9123467,42.7085244" id="Fill-3762" fill="#273743"></path><path d="M41.0016509,43.2286917 L41.0016509,41.5347131 C40.6746755,41.3689227 40.2824584,41.2530229 39.8464911,41.2077376 L39.8464911,43.2286917 L41.0016509,43.2286917 Z" id="Fill-3764" fill="#C5CCCD"></path><path d="M39.8465678,43.2286917 L39.8465678,44.2088506 C40.2825351,44.1643328 40.6747522,44.0476655 41.0017277,43.8826427 L41.0017277,43.2286917 L39.8465678,43.2286917 Z" id="Fill-3766" fill="#C5CCCD"></path><path d="M39.8465678,43.2286917 L39.8465678,41.2077376 C39.7130145,41.1946893 39.577926,41.1824085 39.4382322,41.1824085 C38.8080753,41.1824085 38.2393221,41.3320804 37.8033548,41.5715554 L37.8033548,43.2286917 L39.8465678,43.2286917 Z" id="Fill-3768" fill="#F5F8F5"></path><path d="M39.8465678,44.2091576 L39.8465678,43.2289987 L37.8033548,43.2289987 L37.8033548,43.8453398 C38.2393221,44.0848148 38.8080753,44.2337191 39.4382322,44.2337191 C39.577926,44.2337191 39.7130145,44.2229735 39.8465678,44.2091576" id="Fill-3770" fill="#F5F8F5"></path><path d="M37.8227738,54.1670194 C37.5932769,54.1670194 37.370688,54.1984889 37.1573096,54.2514497 C37.1995248,54.0595627 37.2240863,53.8607677 37.2240863,53.6558324 C37.2240863,52.1337845 35.9891014,50.8987997 34.466286,50.8987997 C34.0472048,50.8987997 33.65115,50.9947432 33.2965428,51.1628362 C32.9872209,49.9769744 31.9126536,49.1004345 30.6308483,49.1004345 C29.1080329,49.1004345 27.8738156,50.3354194 27.8738156,51.8574672 C27.8738156,52.093872 27.9068201,52.3218338 27.9620836,52.5398175 C27.7732668,52.5091155 27.5813798,52.4883917 27.3833524,52.4883917 C25.398473,52.4883917 23.7881571,54.0987076 23.7881571,56.085122 C23.7881571,58.0715365 25.398473,59.6818524 27.3833524,59.6818524 L37.8227738,59.6818524 C39.3455892,59.6818524 40.5805741,58.4468675 40.5805741,56.9248196 C40.5805741,55.4012367 39.3455892,54.1670194 37.8227738,54.1670194" id="Fill-3772" fill="#FFFFFF"></path><path d="M5.98748907,23.6142307 C5.98748907,25.23913 4.67037656,26.5562425 3.04547728,26.5562425 C1.42057799,26.5562425 0.103465481,25.23913 0.103465481,23.6142307 C0.103465481,21.9893315 1.42057799,20.672219 3.04547728,20.672219 C4.67037656,20.672219 5.98748907,21.9893315 5.98748907,23.6142307" id="Fill-3774" fill="#192A36"></path><path d="M17.1334385,12.7531184 C17.1334385,14.3780177 15.8155585,15.6951302 14.1906592,15.6951302 C12.5657599,15.6951302 11.2486474,14.3780177 11.2486474,12.7531184 C11.2486474,11.1282191 12.5657599,9.81110659 14.1906592,9.81110659 C15.8155585,9.81110659 17.1334385,11.1282191 17.1334385,12.7531184" id="Fill-3776" fill="#192A36"></path><path d="M35.0523858,3.07180417 C35.0523858,4.69670346 33.7345057,6.01381597 32.1096064,6.01381597 C30.4847071,6.01381597 29.1675946,4.69670346 29.1675946,3.07180417 C29.1675946,1.44690489 30.4847071,0.12979238 32.1096064,0.12979238 C33.7345057,0.12979238 35.0523858,1.44690489 35.0523858,3.07180417" id="Fill-3778" fill="#192A36"></path><path d="M53.7591443,12.966727 C53.7591443,14.5916263 52.4412643,15.9095064 50.8171325,15.9095064 C49.1922333,15.9095064 47.8743532,14.5916263 47.8743532,12.966727 C47.8743532,11.3418277 49.1922333,10.0247152 50.8171325,10.0247152 C52.4412643,10.0247152 53.7591443,11.3418277 53.7591443,12.966727" id="Fill-3780" fill="#192A36"></path><path d="M64.4441044,23.7993633 C64.4441044,25.4242626 63.1262244,26.7421427 61.5013251,26.7421427 C59.8764258,26.7421427 58.5593133,25.4242626 58.5593133,23.7993633 C58.5593133,22.1744641 59.8764258,20.8573516 61.5013251,20.8573516 C63.1262244,20.8573516 64.4441044,22.1744641 64.4441044,23.7993633" id="Fill-3782" fill="#192A36"></path></g><g id="Azure-Border" stroke="#0078D4" stroke-width="4"><rect x="2" y="2" width="96" height="96" rx="48"></rect></g></g></g></g></svg>

<svg xmlns="http://www.w3.org/2000/svg" viewBox="0 0 100 100"><defs><filter x="-1.5%" y="-1.6%" width="103.1%" height="106.2%" filterUnits="objectBoundingBox" id="a"><feOffset dy="2" in="SourceAlpha" result="shadowOffsetOuter1"/><feColorMatrix values="0 0 0 0 0 0 0 0 0 0 0 0 0 0 0 0 0 0 0.0955615942 0" in="shadowOffsetOuter1" result="shadowMatrixOuter1"/><feMerge><feMergeNode in="shadowMatrixOuter1"/><feMergeNode in="SourceGraphic"/></feMerge></filter></defs><g fill="none" fill-rule="evenodd"><rect fill="#55A2FF" x="2" y="2" width="96" height="96" rx="48"/><g filter="url(#a)" transform="translate(18.5 16)"><path d="M32.051 26.702V5.85M14.27 15.701v15.351l7.186 9.722M3.035 26.574v15.351l7.186 9.723h8.773M61.647 26.574v15.351l-7.186 9.723h-9.466M50.984 15.701v15.351L41.668 41.67" stroke="#30404C" stroke-width="2"/><path d="M32.342 41.332v18.834a2.278 2.278 0 0 1-2.278 2.278h-9.32a2.278 2.278 0 0 1-2.278-2.278l.037 1.464c0 1.319.887 2.298 2.145 2.298H42.93a2.278 2.278 0 0 0 2.278-2.277v-19.3l-12.866-1.02z" fill="#192A36"/><path d="M32.342 42.568v-1.236l-13.876.506v18.329a2.278 2.278 0 0 0 2.278 2.278h9.32a2.279 2.279 0 0 0 2.278-2.278v-11.4a1.91 1.91 0 0 1 1.91-1.91h8.467c1.42 0 2.483-1.02 2.483-2.278v-2.01h-12.86z" fill="#30404C"/><path d="M41.576 46.28H21.953a3.63 3.63 0 0 1-3.63-3.631v-.243a3.63 3.63 0 0 1 3.63-3.63h19.623a3.631 3.631 0 0 1 3.631 3.63v.243a3.631 3.631 0 0 1-3.631 3.631" fill="#546670"/><path d="M39.822 34.651h.024v6.557c.437.045.829.161 1.156.327v-7.13h-.026c-.26-5.144-4.498-9.237-9.706-9.237-.917 0-1.802.135-2.643.372.487-.075.98-.125 1.488-.125 5.208 0 9.447 4.093 9.707 9.236M24.012 35.68v.119c.002.125.002.344.004.632 0 .08 0 .164.002.254l.023 4.464c.003.516.005 1.345.007 2.08h1.157l-.005-1.485a6284.24 6284.24 0 0 1-.033-6.312 6.32 6.32 0 0 1 4.402-6.02 6.315 6.315 0 0 0-5.557 6.267" fill="#C5CCCD"/><path d="M39.822 34.651c-.26-5.143-4.499-9.236-9.707-9.236-.508 0-1.001.05-1.488.125-4.089 1.153-7.088 4.901-7.088 9.359 0 .193.017 3.56.034 6.717l.001.136.008 1.477h2.466l-.007-1.968v-.111l-.024-4.465-.001-.255-.003-.631-.001-.12a6.315 6.315 0 0 1 5.558-6.268 6.293 6.293 0 0 1 1.916-.297c3.38 0 6.132 2.658 6.301 5.996h.016v6.462c.436-.24 1.006-.39 1.635-.39.14 0 .275.012.408.026V34.65h-.024zM24.017 36.685l-.001-.255.001.255M24.013 35.8v-.12.12" fill="#F5F8F5"/><path d="M24.041 41.15v.111c.003.43.005 1.235.007 1.968-.002-.735-.004-1.564-.007-2.08" fill="#F5F8F5"/><path d="M21.573 41.616c-.462.277-.75.664-.75 1.093 0 .43.291.816.756 1.094l-.005-2.05v-.137M25.205 43.229v.44c.349-.264.566-.595.566-.96 0-.368-.22-.701-.57-.965l.008 1.485h-.004z" fill="#273743"/><path d="M24.052 43.229h-.004l.002.925c.46-.091.857-.26 1.156-.486l-.001-.44h-1.153z" fill="#C5CCCD"/><path d="M24.05 44.154l-.002-.925h-2.466l-.009-1.477.006 2.05c.445.267 1.05.432 1.718.432.264 0 .514-.032.753-.08" fill="#F5F8F5"/><path d="M37.803 41.571c-.51.28-.84.684-.84 1.137 0 .455.33.858.84 1.138V41.57zM41.912 42.709c0-.476-.359-.894-.91-1.174v2.347c.551-.28.91-.7.91-1.173" fill="#273743"/><path d="M41.002 43.229v-1.694a3.32 3.32 0 0 0-1.156-.327v2.02h1.156z" fill="#C5CCCD"/><path d="M39.847 43.229v.98a3.32 3.32 0 0 0 1.155-.326v-.654h-1.155z" fill="#C5CCCD"/><path d="M39.847 43.229v-2.021a4.165 4.165 0 0 0-.409-.026c-.63 0-1.199.15-1.635.39v1.657h2.044zM39.847 44.21v-.981h-2.044v.616c.436.24 1.005.389 1.635.389.14 0 .275-.011.409-.025" fill="#F5F8F5"/><path d="M37.823 54.167c-.23 0-.452.031-.666.084a2.758 2.758 0 0 0-2.691-3.353c-.419 0-.815.097-1.17.265a2.757 2.757 0 0 0-2.665-2.063 2.757 2.757 0 0 0-2.757 2.757c0 .237.033.465.088.683a3.59 3.59 0 0 0-.579-.052 3.596 3.596 0 0 0 0 7.194h10.44a2.758 2.758 0 0 0 0-5.515" fill="#FFF"/><path d="M5.987 23.614a2.942 2.942 0 1 1-5.883 0 2.942 2.942 0 0 1 5.883 0M17.133 12.753a2.943 2.943 0 1 1-5.885-.001 2.943 2.943 0 0 1 5.885.001M35.052 3.072a2.943 2.943 0 1 1-5.885-.001 2.943 2.943 0 0 1 5.885 0M53.76 12.967a2.943 2.943 0 1 1-5.887 0 2.943 2.943 0 0 1 5.886 0M64.444 23.8a2.943 2.943 0 1 1-5.886-.002 2.943 2.943 0 0 1 5.886.001" fill="#192A36"/></g><rect x="2" y="2" width="96" height="96" rx="48" stroke="#0078D4" stroke-width="4"/></g></svg>
